icons/glyphs/glyph-kdiamond.svg

<?xml version="1.0" encoding="UTF-8" standalone="no"?><svg height="16" viewBox="0 0 4.2333332 4.2333332" width="16" xmlns="http://www.w3.org/2000/svg"><sodipodi:namedview/><metadata><rdf:RDF><cc:Work><dc:format>image/svg+xml</dc:format><dc:type/><dc:title/></cc:Work></rdf:RDF></metadata><path d="m1.058455.00000007-1.05845493 1.05845493 1.05845493 1.0584549 1.0579682-1.0584549zm1.0579682 1.05845493 1.058455 1.0584549 1.0584549-1.0584549-1.0584549-1.05845493zm1.058455 1.0584549-1.058455 1.0579682 1.058455 1.058455 1.0584549-1.058455zm-1.058455 1.0579682-1.0579682-1.0579682-1.05845493 1.0579682 1.05845493 1.058455z" fill="#d0d0d0"/></svg>

<?xml version="1.0" encoding="UTF-8" standalone="no"?>
<!-- Created with Inkscape (http://www.inkscape.org/) -->

<svg
   xmlns:dc="http://purl.org/dc/elements/1.1/"
   xmlns:cc="http://creativecommons.org/ns#"
   xmlns:rdf="http://www.w3.org/1999/02/22-rdf-syntax-ns#"
   xmlns:svg="http://www.w3.org/2000/svg"
   xmlns="http://www.w3.org/2000/svg"
   xmlns:sodipodi="http://sodipodi.sourceforge.net/DTD/sodipodi-0.dtd"
   xmlns:inkscape="http://www.inkscape.org/namespaces/inkscape"
   width="16"
   height="16"
   viewBox="0 0 4.2333332 4.2333332"
   version="1.1"
   id="svg8"
   inkscape:version="0.92+devel (f96dc7e339, 2017-07-28, custom)"
   sodipodi:docname="glyph-kdiamond.svg">
  <defs
     id="defs2" />
  <sodipodi:namedview
     id="base"
     pagecolor="#002466"
     bordercolor="#ffffff"
     borderopacity="0.38039216"
     inkscape:pageopacity="1"
     inkscape:pageshadow="2"
     inkscape:zoom="36.415999"
     inkscape:cx="10.094581"
     inkscape:cy="7.9162778"
     inkscape:document-units="px"
     inkscape:current-layer="svg8"
     inkscape:document-rotation="0"
     showgrid="false"
     inkscape:showpageshadow="false"
     borderlayer="true"
     inkscape:window-width="1920"
     inkscape:window-height="1051"
     inkscape:window-x="0"
     inkscape:window-y="0"
     inkscape:window-maximized="1"
     units="px" />
  <metadata
     id="metadata5">
    <rdf:RDF>
      <cc:Work
         rdf:about="">
        <dc:format>image/svg+xml</dc:format>
        <dc:type
           rdf:resource="http://purl.org/dc/dcmitype/StillImage" />
        <dc:title></dc:title>
      </cc:Work>
    </rdf:RDF>
  </metadata>
  <path
     style="font-variation-settings:normal;vector-effect:none;fill:#d0d0d0;stroke:none;stroke-width:0.80353957;stroke-linecap:square"
     d="M 1.058455,7.4999999e-8 6.5e-8,1.058455 1.058455,2.1169099 2.1164232,1.058455 Z M 2.1164232,1.058455 3.1748782,2.1169099 4.2333331,1.058455 3.1748782,7.4999999e-8 Z m 1.058455,1.0584549 -1.058455,1.0579682 1.058455,1.058455 1.0584549,-1.058455 z M 2.1164232,3.1748781 1.058455,2.1169099 6.5e-8,3.1748781 1.058455,4.2333331 Z"
     id="path821"
     inkscape:connector-curvature="0"
     inkscape:label="#" />
</svg>
